X: 6
T: Zhen hunhun genshang ni zoule
L: 1/8
M: 2/4
K: Bb
d'd'2b [I:setbarnb 1]| 
b b a g | 
f g d' f | 
d4 | 
c'c'2b | 
b> b a g | 
f g d' f | 
g4 |]

@@@ Tune index: 8880
